!!!OTL: 61d. Der gefangene Knabe.
!!!ODT: 1891
!!!ARE: Europa, Mitteleuropa, Deutschland, Schleswig - Holstein, Westkueste
!!!SCT: E0061I
!!!TXL: @@DE
!!!YEM: Copyright 1995, estate of Helmut Schaffrath.
**kern	**text
*ICvox	*
*M4/4	*
*met(c)	*
*k[b-e-a-]	*
*E-:	*
!LO:TX:a:t=Mäßig bewegt.	!
!LO:TX:a:t=Aus Schleswig-Holſtein (Weſtküſte). 1591.	!
{4e-	Es
=1	=1
4e-	liegt
4g	ein
(4b-/	Schloß
8g)	.
8e-	in
=2	=2
4d	Oe-
4g	-ſterreich,
4f	.
8r}	.
{8e-	gar
=3	=3
4e-	wun-
4g	-der-
(4b-/	-ſchön
8g)	.
8e-	ge-
=4	=4
2g	-bau-
4f	-et,
8r}	.
{8b-	von
=5	=5
4cc	Sil-
4dd	-ber
(4ee-	und
8dd)	.
8cc	von
=6	=6
4b-	ro-
4b-	-them
(4ee-	Gold,
8dd)}	.
{8cc	von
=7	=7
4b-/	Mar-
4g	-mor-
4.a-	-ſtein
8f	ge-
=8	=8
2f	-mau-
4e-}	-ert.
==	==
!!!AGN: erzaehlendes Volks - Lied, Sage, Mord, Ballade ?
!!!ONB: ESAC (Essen Associative Code) Database: ERK1
!!!AMT: simple quadruple
!!!AIN: vox
!!!EED: Helmut Schaffrath
!!!EEV: 1.0
!!!GTL: Sagen von Mordthaten, unschuldig Gesangeg und Hinrichtungen
!!!URL-scan: https://rosdok.uni-rostock.de/mcrviewer/recordIdentifier/rosdok_ppn745146120/iview2/phys_0276.iview2?x=-4.404412318551749&y=574.137812633533&scale=0.6456904138606624&rotation=0&layout=singlePageLayout&logicalDiv=log_0009
!!!ENC: Anna Maria Matuszewska
!!!EEV: 2024/11/26
*-	*-
